flaticon/symbols/fire.svg

<svg xmlns="http://www.w3.org/2000/svg" width="32" height="32" viewBox="0 0 24 24">
    <path d="M 23.886719 21.167969 L 12.648438 1.992188 C 12.496094 1.734375 12.226562 1.578125 11.929688 1.578125 C 11.929688 1.578125 11.925781 1.578125 11.925781 1.578125 C 11.628906 1.582031 11.359375 1.734375 11.210938 1.996094 L 0.113281 21.171875 C -0.0390625 21.433594 -0.0390625 21.742188 0.113281 22.003906 C 0.261719 22.265625 0.53125 22.421875 0.832031 22.421875 L 23.167969 22.421875 C 23.46875 22.421875 23.738281 22.265625 23.886719 22.003906 C 24.039062 21.742188 24.035156 21.429688 23.886719 21.167969 Z M 0.835938 21.589844 L 11.929688 2.414062 L 23.164062 21.585938 Z M 0.835938 21.589844"/>
    <path d="M 21.710938 20.753906 L 11.933594 4.070312 L 2.28125 20.753906 Z M 11.9375 5.726562 L 20.253906 19.921875 L 3.726562 19.921875 Z M 11.9375 5.726562"/>
</svg>

<svg xmlns="http://www.w3.org/2000/svg" width="32" height="32" viewBox="0 0 24 24">
    <path d="M23.887 21.168L12.648 1.992a.831.831 0 0 0-.718-.414h-.004a.824.824 0 0 0-.715.418L.113 21.172a.814.814 0 0 0 0 .832.818.818 0 0 0 .719.418h22.336c.3 0 .57-.156.719-.418a.83.83 0 0 0 0-.836zM.836 21.59L11.93 2.414l11.234 19.172zm0 0"/>
    <path d="M21.71 20.754L11.935 4.07 2.28 20.754zM11.938 5.727l8.317 14.195H3.727zm0 0"/>
</svg>
